public/svg/notif.svg

<svg height="31" viewBox="0 0 25 31" width="25" xmlns="http://www.w3.org/2000/svg" xmlns:xlink="http://www.w3.org/1999/xlink"><linearGradient id="a" x1="50%" x2="50%" y1="0%" y2="100%"><stop offset="0" stop-color="#4db9ec"/><stop offset="1" stop-color="#5c6ddd"/></linearGradient><g fill="url(#a)" transform="translate(0 .75)"><path d="m21.1111114 15.138668v-2.7109336c0-3.95476174-2.578381-7.30669729-6.1110924-8.40150393v-1.22740235c0-1.40542382-1.1214966-2.54882812-2.4999923-2.54882812-1.3784958 0-2.4999924 1.1434043-2.4999924 2.54882812v1.22740235c-3.53276697 1.09480664-6.11109242 4.44668555-6.11109242 8.40150393v2.7109336c0 3.4738828-1.2987738 6.767875-3.65704437 9.2752422-.2311104.245707-.29605465.6082636-.16505505.921373s.43266535.5162793.76655321.5162793h7.58381014c.38710993 1.9366562 2.07066029 3.3984375 4.08282089 3.3984375 2.012216 0 3.6956553-1.4617813 4.0828208-3.3984375h7.5838101c.3338879 0 .6354981-.2031699.7664977-.5162793s.0660553-.675666-.1649995-.921373c-2.3582706-2.5073672-3.6570444-5.8014161-3.6570444-9.2752422zm-9.4444155-12.33983988c0-.4684746.3738322-.84960937.8333308-.84960937.4594985 0 .8333307.38113477.8333307.84960937v.89084375c-.2742769-.02696093-.5522205-.04123437-.8333307-.04123437-.2811103 0-.5590539.01427344-.8333308.04123437zm.8333308 24.75195308c-1.0863856 0-2.0126606-.71033-2.3566595-1.6992187h4.7133189c-.3439989.9888887-1.2702739 1.6992187-2.3566594 1.6992187zm-9.87052541-3.3984375c1.89782753-2.5936875 2.92610216-5.7324843 2.92610216-9.0136757v-2.7109336c0-3.9039551 3.11526825-7.08007815 6.94442325-7.08007815 3.8291549 0 6.9444232 3.17612305 6.9444232 7.08007815v2.7109336c0 3.2811914 1.0282746 6.4199882 2.9261577 9.0136757z"/><path d="m23.0329481 13.3255946c0 .5105183.4403574.9244054.983526.9244054s.9835259-.4138871.9835259-.9244054c0-3.70378406-1.5345627-7.18589577-4.3210229-9.80485938-.3840341-.36094948-1.0068027-.36101111-1.3909024 0-.3840996.3610111-.3840996.94628294 0 1.30729405 2.4149496 2.2697849 3.7448734 5.28759863 3.7448734 8.49756533z"/><path d="m.98352594 14.25c.54316859 0 .98352594-.4138885.98352594-.9244086 0-3.2099164 1.32998935-6.22774065 3.74487337-8.4975335.38409967-.36101237.38409967-.94628626 0-1.30729862-.38403409-.36101237-1.00680272-.36101237-1.39090238 0-2.78646013 2.61897278-4.32102287 6.10103505-4.32102287 9.80483212 0 .5105201.44035735.9244086.98352594.9244086z"/></g></svg>

<?xml version="1.0" encoding="UTF-8"?>
<svg width="25px" height="31px" viewBox="0 0 25 31" version="1.1" xmlns="http://www.w3.org/2000/svg" xmlns:xlink="http://www.w3.org/1999/xlink">
    <title>notif</title>
    <defs>
        <linearGradient x1="50%" y1="0%" x2="50%" y2="100%" id="linearGradient-1">
            <stop stop-color="#4DB9EC" offset="0%"></stop>
            <stop stop-color="#5C6DDD" offset="100%"></stop>
        </linearGradient>
        <linearGradient x1="50%" y1="0%" x2="50%" y2="100%" id="linearGradient-2">
            <stop stop-color="#4DB9EC" offset="0%"></stop>
            <stop stop-color="#5C6DDD" offset="100%"></stop>
        </linearGradient>
    </defs>
    <g id="Page-1" stroke="none" stroke-width="1" fill="none" fill-rule="evenodd">
        <g id="Dashboard-user-desktop" transform="translate(-575.000000, -187.000000)" fill-rule="nonzero">
            <g id="notif" transform="translate(575.000000, 187.750000)">
                <path d="M21.1111114,15.138668 L21.1111114,12.4277344 C21.1111114,8.47297266 18.5327304,5.12103711 15.000019,4.02623047 L15.000019,2.79882812 C15.000019,1.3934043 13.8785224,0.25 12.5000267,0.25 C11.1215309,0.25 10.0000343,1.3934043 10.0000343,2.79882812 L10.0000343,4.02623047 C6.46726733,5.12103711 3.88894188,8.47291602 3.88894188,12.4277344 L3.88894188,15.138668 C3.88894188,18.6125508 2.59016808,21.906543 0.231897513,24.4139102 C0.000787108422,24.6596172 -0.0641571374,25.0221738 0.0668424619,25.3352832 C0.197842061,25.6483926 0.499507805,25.8515625 0.833395673,25.8515625 L8.41720581,25.8515625 C8.80431574,27.7882187 10.4878661,29.25 12.5000267,29.25 C14.5122427,29.25 16.195682,27.7882187 16.5828475,25.8515625 L24.1666576,25.8515625 C24.5005455,25.8515625 24.8021557,25.6483926 24.9331553,25.3352832 C25.0641549,25.0221738 24.9992106,24.6596172 24.7681558,24.4139102 C22.4098852,21.906543 21.1111114,18.6124941 21.1111114,15.138668 Z M11.6666959,2.79882812 C11.6666959,2.33035352 12.0405281,1.94921875 12.5000267,1.94921875 C12.9595252,1.94921875 13.3333574,2.33035352 13.3333574,2.79882812 L13.3333574,3.68967187 C13.0590805,3.66271094 12.7811369,3.6484375 12.5000267,3.6484375 C12.2189164,3.6484375 11.9409728,3.66271094 11.6666959,3.68967187 L11.6666959,2.79882812 Z M12.5000267,27.5507812 C11.4136411,27.5507812 10.4873661,26.8404512 10.1433672,25.8515625 L14.8566861,25.8515625 C14.5126872,26.8404512 13.5864122,27.5507812 12.5000267,27.5507812 L12.5000267,27.5507812 Z M2.62950129,24.1523437 C4.52732882,21.5586562 5.55560345,18.4198594 5.55560345,15.138668 L5.55560345,12.4277344 C5.55560345,8.5237793 8.6708717,5.34765625 12.5000267,5.34765625 C16.3291816,5.34765625 19.4444499,8.5237793 19.4444499,12.4277344 L19.4444499,15.138668 C19.4444499,18.4198594 20.4727245,21.5586562 22.3706076,24.1523437 L2.62950129,24.1523437 Z" id="Shape" fill="url(#linearGradient-1)"></path>
                <path d="M23.0329481,13.3255946 C23.0329481,13.8361129 23.4733055,14.25 24.0164741,14.25 C24.5596427,14.25 25,13.8361129 25,13.3255946 C25,9.62181054 23.4654373,6.13969883 20.6789771,3.52073522 C20.294943,3.15978574 19.6721744,3.15972411 19.2880747,3.52073522 C18.9039751,3.88174632 18.9039751,4.46701816 19.2880747,4.82802927 C21.7030243,7.09781417 23.0329481,10.1156279 23.0329481,13.3255946 L23.0329481,13.3255946 Z" id="Path" fill="url(#linearGradient-2)"></path>
                <path d="M0.98352594,14.25 C1.52669453,14.25 1.96705188,13.8361115 1.96705188,13.3255914 C1.96705188,10.115675 3.29704123,7.09785075 5.71192525,4.8280579 C6.09602492,4.46704553 6.09602492,3.88177164 5.71192525,3.52075928 C5.32789116,3.15974691 4.70512253,3.15974691 4.32102287,3.52075928 C1.53456274,6.13973206 0,9.62179433 0,13.3255914 C0,13.8361115 0.440357348,14.25 0.98352594,14.25 Z" id="Path" fill="url(#linearGradient-2)"></path>
            </g>
        </g>
    </g>
</svg>
